source/img/mobile/logo.svg

<svg width="35" height="35" viewBox="0 0 35 35" fill="none" xmlns="http://www.w3.org/2000/svg">
<path d="M21.5837 9.33319C22.3432 9.33319 22.9848 9.8226 23.2263 10.4998H29.2743C29.5158 9.8226 30.1575 9.33319 30.917 9.33319C31.8818 9.33319 32.667 10.1183 32.667 11.0832C32.667 12.048 31.8818 12.8331 30.917 12.8331C30.1575 12.8331 29.5158 12.3437 29.2743 11.6665H23.2257C22.9842 12.3437 22.3426 12.8331 21.5831 12.8331C20.6182 12.8331 19.8331 12.048 19.8331 11.0832C19.8331 10.1183 20.6188 9.33319 21.5837 9.33319ZM30.917 11.6665C31.2384 11.6665 31.5003 11.4052 31.5003 11.0832C31.5003 10.7612 31.2384 10.4998 30.917 10.4998C30.5956 10.4998 30.3337 10.7612 30.3337 11.0832C30.3337 11.4052 30.5956 11.6665 30.917 11.6665ZM21.5837 11.6665C21.9051 11.6665 22.167 11.4052 22.167 11.0832C22.167 10.7612 21.9051 10.4998 21.5837 10.4998C21.2622 10.4998 21.0003 10.7612 21.0003 11.0832C21.0003 11.4052 21.2622 11.6665 21.5837 11.6665Z" fill="#00B2FF"/>
<path d="M16.9173 12.9405V9.33319C16.9173 9.17802 16.9786 9.02986 17.0882 8.92078L19.4216 6.58748C19.5307 6.47782 19.6794 6.41657 19.834 6.41657H21.6913C21.9328 5.73933 22.5745 5.24992 23.334 5.24992C24.2988 5.24992 25.084 6.03508 25.084 6.99989C25.084 7.96471 24.2988 8.74987 23.334 8.74987C22.5745 8.74987 21.9328 8.26046 21.6913 7.58322H20.0755L18.084 9.57468V12.9405C18.7612 13.182 19.2507 13.8236 19.2507 14.5831C19.2507 15.5479 18.4655 16.3331 17.5007 16.3331C16.5358 16.3331 15.7507 15.5479 15.7507 14.5831C15.7507 13.8236 16.2401 13.182 16.9173 12.9405ZM23.334 7.58322C23.6554 7.58322 23.9173 7.32189 23.9173 6.99989C23.9173 6.6779 23.6554 6.41657 23.334 6.41657C23.0126 6.41657 22.7507 6.6779 22.7507 6.99989C22.7507 7.32189 23.0126 7.58322 23.334 7.58322ZM17.5007 15.1664C17.8221 15.1664 18.084 14.9051 18.084 14.5831C18.084 14.2611 17.8221 13.9998 17.5007 13.9998C17.1792 13.9998 16.9173 14.2611 16.9173 14.5831C16.9173 14.9051 17.1792 15.1664 17.5007 15.1664Z" fill="#00B2FF"/>
<path d="M6.41716 15.1664C6.68666 15.1664 6.93865 15.2323 7.16674 15.342L8.16716 14.3416V8.74986C8.16716 8.59469 8.2284 8.44653 8.33807 8.33745L14.1761 2.49954C14.0664 2.27146 14.0005 2.01947 14.0005 1.74997C14.0005 0.785154 14.7857 0 15.7505 0C16.7153 0 17.5005 0.785154 17.5005 1.74997C17.5005 2.71479 16.7153 3.49994 15.7505 3.49994C15.481 3.49994 15.229 3.43403 15.0009 3.32436L9.33382 8.99135V14.5831C9.33382 14.7383 9.27257 14.8864 9.16291 14.9955L7.99157 16.1668C8.10124 16.3949 8.16716 16.6469 8.16716 16.9164C8.16716 17.8812 7.38199 18.6664 6.41716 18.6664C5.45232 18.6664 4.66716 17.8812 4.66716 16.9164C4.66716 15.9516 5.45232 15.1664 6.41716 15.1664ZM15.7505 2.33329C16.0719 2.33329 16.3338 2.07197 16.3338 1.74997C16.3338 1.42798 16.0719 1.16665 15.7505 1.16665C15.4291 1.16665 15.1672 1.42798 15.1672 1.74997C15.1672 2.07197 15.4291 2.33329 15.7505 2.33329ZM6.41716 17.4997C6.73857 17.4997 7.00049 17.2384 7.00049 16.9164C7.00049 16.5944 6.73857 16.3331 6.41716 16.3331C6.09574 16.3331 5.83382 16.5944 5.83382 16.9164C5.83382 17.2384 6.09574 17.4997 6.41716 17.4997Z" fill="#00B2FF"/>
<path d="M1.16716 8.27386V5.83324C1.16716 5.67807 1.2284 5.52991 1.33807 5.42083L5.4214 1.33756C5.53049 1.2279 5.67924 1.16665 5.83382 1.16665H8.85782C9.09932 0.489408 9.74099 0 10.5005 0C11.4653 0 12.2505 0.785154 12.2505 1.74997C12.2505 2.71479 11.4653 3.49994 10.5005 3.49994C9.74099 3.49994 9.09932 3.01053 8.85782 2.33329H6.07532L2.33382 6.07473V8.27386C3.01107 8.51536 3.50049 9.15701 3.50049 9.9165C3.50049 10.8813 2.71532 11.6665 1.75049 11.6665C0.785655 11.6665 0.000488281 10.8813 0.000488281 9.9165C0.000488281 9.15701 0.489905 8.51536 1.16716 8.27386ZM10.5005 2.33329C10.8219 2.33329 11.0838 2.07197 11.0838 1.74997C11.0838 1.42798 10.8219 1.16665 10.5005 1.16665C10.1791 1.16665 9.91716 1.42798 9.91716 1.74997C9.91716 2.07197 10.1791 2.33329 10.5005 2.33329ZM1.75049 10.4998C2.07191 10.4998 2.33382 10.2385 2.33382 9.9165C2.33382 9.59451 2.07191 9.33318 1.75049 9.33318C1.42907 9.33318 1.16716 9.59451 1.16716 9.9165C1.16716 10.2385 1.42907 10.4998 1.75049 10.4998Z" fill="#00B2FF"/>
<path d="M9.33324 31.6074V23.2256C8.65657 22.9841 8.16716 22.3425 8.16716 21.583C8.16716 20.6182 8.95232 19.833 9.91716 19.833C10.6767 19.833 11.3183 20.3224 11.5598 20.9997H17.6078C17.8493 20.3224 18.491 19.833 19.2505 19.833C20.01 19.833 20.6517 20.3224 20.8932 20.9997H24.259L26.4261 18.8326C26.3164 18.6045 26.2505 18.3525 26.2505 18.083C26.2505 17.1182 27.0357 16.3331 28.0005 16.3331C28.9653 16.3331 29.7505 17.1182 29.7505 18.083C29.7505 19.0479 28.9653 19.833 28.0005 19.833C27.731 19.833 27.479 19.7671 27.2509 19.6574L24.9129 21.9954C24.8038 22.1051 24.6551 22.1663 24.5005 22.1663H20.8932C20.6517 22.8435 20.01 23.333 19.2505 23.333C18.491 23.333 17.8493 22.8435 17.6078 22.1663H11.5592C11.3831 22.6604 10.994 23.0495 10.4999 23.2256V31.6074C11.1772 31.8489 11.6666 32.4905 11.6666 33.25C11.6666 34.2149 10.8814 35 9.91657 35C8.95174 35 8.16657 34.2149 8.16657 33.25C8.16657 32.4905 8.65599 31.8489 9.33324 31.6074ZM28.0005 18.6664C28.3219 18.6664 28.5838 18.405 28.5838 18.083C28.5838 17.761 28.3219 17.4997 28.0005 17.4997C27.6791 17.4997 27.4172 17.761 27.4172 18.083C27.4172 18.405 27.6791 18.6664 28.0005 18.6664ZM19.2505 22.1663C19.5719 22.1663 19.8338 21.905 19.8338 21.583C19.8338 21.261 19.5719 20.9997 19.2505 20.9997C18.9291 20.9997 18.6672 21.261 18.6672 21.583C18.6672 21.905 18.9291 22.1663 19.2505 22.1663ZM9.91716 33.8328C10.2386 33.8328 10.5005 33.5714 10.5005 33.2495C10.5005 32.9275 10.2386 32.6661 9.91716 32.6661C9.59574 32.6661 9.33382 32.9275 9.33382 33.2495C9.33382 33.5714 9.59574 33.8328 9.91716 33.8328ZM9.91716 22.1663C10.2386 22.1663 10.5005 21.905 10.5005 21.583C10.5005 21.261 10.2386 20.9997 9.91716 20.9997C9.59574 20.9997 9.33382 21.261 9.33382 21.583C9.33382 21.905 9.59574 22.1663 9.91716 22.1663Z" fill="#00B2FF"/>
<path d="M12.2507 11.7738V9.9165C12.2507 9.76134 12.3119 9.61317 12.4216 9.50409L19.4262 2.49954C19.3166 2.27146 19.2507 2.01947 19.2507 1.74997C19.2507 0.785154 20.0358 0 21.0007 0C21.7602 0 22.4018 0.489408 22.6433 1.16665H25.084C25.406 1.16665 25.6673 1.42739 25.6673 1.74997V3.25845L27.8344 5.42549C28.0625 5.31583 28.3145 5.24991 28.584 5.24991C29.5488 5.24991 30.334 6.03507 30.334 6.99988C30.334 7.9647 29.5488 8.74985 28.584 8.74985C27.6192 8.74985 26.834 7.9647 26.834 6.99988C26.834 6.73039 26.8999 6.47839 27.0096 6.25031L24.6716 3.91235C24.5619 3.80327 24.5007 3.65511 24.5007 3.49994V2.33329H22.6433C22.4018 3.01053 21.7602 3.49994 21.0007 3.49994C20.7312 3.49994 20.4792 3.43403 20.2511 3.32436L13.4173 10.158V11.7738C14.0946 12.0153 14.584 12.657 14.584 13.4164C14.584 14.3813 13.7988 15.1664 12.834 15.1664C11.8692 15.1664 11.084 14.3813 11.084 13.4164C11.084 12.657 11.5734 12.0153 12.2507 11.7738ZM28.584 7.58321C28.9054 7.58321 29.1673 7.32188 29.1673 6.99988C29.1673 6.67789 28.9054 6.41656 28.584 6.41656C28.2626 6.41656 28.0007 6.67789 28.0007 6.99988C28.0007 7.32188 28.2626 7.58321 28.584 7.58321ZM21.0007 2.33329C21.3221 2.33329 21.584 2.07197 21.584 1.74997C21.584 1.42798 21.3221 1.16665 21.0007 1.16665C20.6792 1.16665 20.4173 1.42798 20.4173 1.74997C20.4173 2.07197 20.6792 2.33329 21.0007 2.33329ZM12.834 13.9998C13.1554 13.9998 13.4173 13.7384 13.4173 13.4164C13.4173 13.0944 13.1554 12.8331 12.834 12.8331C12.5126 12.8331 12.2507 13.0944 12.2507 13.4164C12.2507 13.7384 12.5126 13.9998 12.834 13.9998Z" fill="#00B2FF"/>
<path d="M14.0005 16.3331C14.76 16.3331 15.4016 16.8225 15.6431 17.4997H22.509L25.8381 14.1707C25.9472 14.061 26.0959 13.9998 26.2505 13.9998H32.4257L33.8338 12.5916V7.8247L29.3334 3.32436C29.1053 3.43403 28.8533 3.49994 28.5838 3.49994C27.619 3.49994 26.8338 2.71479 26.8338 1.74997C26.8338 0.785154 27.619 0 28.5838 0C29.5487 0 30.3338 0.785154 30.3338 1.74997C30.3338 2.01947 30.2679 2.27146 30.1582 2.49954L34.8296 7.1708C34.9392 7.27988 35.0005 7.42804 35.0005 7.58321V12.8331C35.0005 12.9883 34.9392 13.1364 34.8296 13.2455L33.0796 14.9955C32.9705 15.1052 32.8217 15.1664 32.6672 15.1664H26.492L23.1629 18.4954C23.0538 18.6051 22.9051 18.6664 22.7505 18.6664H15.6431C15.4016 19.3436 14.76 19.833 14.0005 19.833C13.0356 19.833 12.2505 19.0478 12.2505 18.083C12.2505 17.1182 13.0356 16.3331 14.0005 16.3331ZM28.5838 1.16665C28.2624 1.16665 28.0005 1.42798 28.0005 1.74997C28.0005 2.07197 28.2624 2.33329 28.5838 2.33329C28.9052 2.33329 29.1672 2.07197 29.1672 1.74997C29.1672 1.42798 28.9052 1.16665 28.5838 1.16665ZM14.0005 18.6664C14.3219 18.6664 14.5838 18.405 14.5838 18.083C14.5838 17.761 14.3219 17.4997 14.0005 17.4997C13.6791 17.4997 13.4171 17.761 13.4171 18.083C13.4171 18.405 13.6791 18.6664 14.0005 18.6664Z" fill="#00B2FF"/>
<path d="M1.75033 13.9998C2.01983 13.9998 2.27183 14.0657 2.49991 14.1754L4.66699 12.0083V8.64253C3.98974 8.40104 3.50033 7.75938 3.50033 6.99989C3.50033 6.03508 4.28549 5.24992 5.25033 5.24992C6.21516 5.24992 7.00033 6.03508 7.00033 6.99989C7.00033 7.75938 6.51091 8.40104 5.83366 8.64253V12.2498C5.83366 12.405 5.77241 12.5531 5.66274 12.6622L3.32474 15.0002C3.43441 15.2283 3.50033 15.4803 3.50033 15.7497C3.50033 16.5092 3.01091 17.1509 2.33366 17.3924V17.8415L6.82941 22.3372C6.93908 22.4463 7.00033 22.5945 7.00033 22.7496V23.4403C7.67758 23.6818 8.16699 24.3234 8.16699 25.0829C8.16699 25.8424 7.67758 26.4841 7.00033 26.7256V28.1075C7.67758 28.349 8.16699 28.9906 8.16699 29.7501C8.16699 30.7149 7.38183 31.5001 6.41699 31.5001C5.45216 31.5001 4.66699 30.7149 4.66699 29.7501C4.66699 28.9906 5.15641 28.349 5.83366 28.1075V26.7256C5.15641 26.4841 4.66699 25.8424 4.66699 25.0829C4.66699 24.3234 5.15641 23.6818 5.83366 23.4403V22.9911L1.33791 18.4955C1.22824 18.3864 1.16699 18.2382 1.16699 18.083V17.3924C0.489742 17.1509 0.000326157 16.5092 0.000326157 15.7497C0.000326157 14.7849 0.785492 13.9998 1.75033 13.9998ZM5.25033 7.58322C5.57174 7.58322 5.83366 7.32189 5.83366 6.99989C5.83366 6.6779 5.57174 6.41657 5.25033 6.41657C4.92891 6.41657 4.66699 6.6779 4.66699 6.99989C4.66699 7.32189 4.92891 7.58322 5.25033 7.58322ZM6.41699 30.3328C6.73841 30.3328 7.00033 30.0715 7.00033 29.7495C7.00033 29.4275 6.73841 29.1662 6.41699 29.1662C6.09558 29.1662 5.83366 29.4275 5.83366 29.7495C5.83366 30.0715 6.09558 30.3328 6.41699 30.3328ZM6.41699 25.6663C6.73841 25.6663 7.00033 25.4049 7.00033 25.0829C7.00033 24.7609 6.73841 24.4996 6.41699 24.4996C6.09558 24.4996 5.83366 24.7609 5.83366 25.0829C5.83366 25.4049 6.09558 25.6663 6.41699 25.6663ZM1.75033 16.3331C2.07174 16.3331 2.33366 16.0717 2.33366 15.7497C2.33366 15.4278 2.07174 15.1664 1.75033 15.1664C1.42891 15.1664 1.16699 15.4278 1.16699 15.7497C1.16699 16.0717 1.42891 16.3331 1.75033 16.3331Z" fill="#00B2FF"/>
</svg>

<svg width="35" height="35" fill="none" xmlns="http://www.w3.org/2000/svg"><path d="M21.584 9.333c.76 0 1.4.49 1.642 1.167h6.048a1.748 1.748 0 011.643-1.167c.965 0 1.75.785 1.75 1.75s-.785 1.75-1.75 1.75c-.76 0-1.401-.49-1.643-1.167h-6.048a1.748 1.748 0 01-1.643 1.167c-.965 0-1.75-.785-1.75-1.75s.786-1.75 1.75-1.75zm9.333 2.333a.584.584 0 10-.001-1.167.584.584 0 00.001 1.167zm-9.333 0a.584.584 0 10-.001-1.167.584.584 0 000 1.167z" fill="#00B2FF"/><path d="M16.917 12.94V9.334c0-.155.062-.303.171-.412l2.334-2.334a.578.578 0 01.412-.17h1.857a1.748 1.748 0 011.643-1.167c.965 0 1.75.785 1.75 1.75s-.785 1.75-1.75 1.75c-.76 0-1.401-.49-1.643-1.167h-1.615l-1.992 1.992v3.366a1.748 1.748 0 011.167 1.642c0 .965-.786 1.75-1.75 1.75-.965 0-1.75-.785-1.75-1.75 0-.76.49-1.401 1.166-1.643zm6.417-5.357a.584.584 0 10-.001-1.168.584.584 0 00.001 1.168zm-5.833 7.583A.584.584 0 1017.5 14a.584.584 0 000 1.167zm-11.084 0c.27 0 .522.066.75.176l1-1V8.75a.58.58 0 01.171-.413L14.176 2.5a1.72 1.72 0 01-.175-.75A1.751 1.751 0 0115.75 0c.964 0 1.75.785 1.75 1.75s-.786 1.75-1.75 1.75c-.27 0-.522-.066-.75-.176L9.334 8.991v5.592a.58.58 0 01-.171.412l-1.171 1.172c.11.228.175.48.175.75 0 .964-.785 1.75-1.75 1.75s-1.75-.786-1.75-1.75c0-.965.785-1.75 1.75-1.75zm9.334-12.833a.584.584 0 10-.002-1.167.584.584 0 00.002 1.167zM6.416 17.5a.584.584 0 10-.001-1.168.584.584 0 00.001 1.168zM1.167 8.274v-2.44a.58.58 0 01.171-.413l4.083-4.083a.583.583 0 01.413-.171h3.024A1.748 1.748 0 0110.5 0c.964 0 1.75.785 1.75 1.75S11.465 3.5 10.5 3.5c-.76 0-1.402-.49-1.643-1.167H6.075L2.334 6.075v2.199A1.748 1.748 0 013.5 9.917c0 .964-.785 1.75-1.75 1.75-.964 0-1.75-.786-1.75-1.75 0-.76.49-1.402 1.167-1.643zm9.333-5.94a.584.584 0 100-1.168.584.584 0 000 1.167zM1.75 10.5a.584.584 0 100-1.168.584.584 0 000 1.168zm7.583 21.107v-8.381a1.748 1.748 0 01-1.166-1.643c0-.965.785-1.75 1.75-1.75.76 0 1.401.49 1.643 1.167h6.048a1.748 1.748 0 011.642-1.167c.76 0 1.402.49 1.643 1.167h3.366l2.167-2.167a1.721 1.721 0 01-.175-.75c0-.965.785-1.75 1.75-1.75.964 0 1.75.785 1.75 1.75s-.786 1.75-1.75 1.75c-.27 0-.522-.066-.75-.176l-2.338 2.338a.582.582 0 01-.413.171h-3.607a1.748 1.748 0 01-1.643 1.167c-.759 0-1.4-.49-1.642-1.167h-6.049a1.748 1.748 0 01-1.06 1.06v8.381a1.747 1.747 0 011.168 1.643c0 .965-.786 1.75-1.75 1.75-.965 0-1.75-.785-1.75-1.75 0-.76.489-1.401 1.166-1.643zM28 18.667a.584.584 0 100-1.169.584.584 0 000 1.168zm-8.75 3.5a.584.584 0 100-1.168.584.584 0 000 1.167zM9.917 33.832a.584.584 0 10-.001-1.168.584.584 0 00.001 1.168zm0-11.667a.584.584 0 100-1.167.584.584 0 000 1.167z" fill="#00B2FF"/><path d="M12.25 11.774V9.917a.58.58 0 01.172-.413L19.426 2.5a1.722 1.722 0 01-.175-.75A1.751 1.751 0 0121 0c.76 0 1.4.49 1.642 1.167h2.441c.322 0 .583.26.583.583v1.508l2.167 2.167c.229-.11.48-.175.75-.175.965 0 1.75.785 1.75 1.75s-.785 1.75-1.75 1.75-1.75-.785-1.75-1.75c0-.27.066-.522.176-.75l-2.338-2.338A.58.58 0 0124.5 3.5V2.333h-1.858A1.748 1.748 0 0121.001 3.5c-.27 0-.522-.066-.75-.176l-6.834 6.834v1.616a1.748 1.748 0 011.167 1.642c0 .965-.785 1.75-1.75 1.75s-1.75-.785-1.75-1.75c0-.759.49-1.4 1.167-1.642zm16.334-4.19a.584.584 0 10-.001-1.169.584.584 0 00.001 1.168zm-7.583-5.25A.584.584 0 1021 1.165a.584.584 0 000 1.167zM12.834 14a.584.584 0 10-.001-1.168.584.584 0 00.001 1.168z" fill="#00B2FF"/><path d="M14 16.333c.76 0 1.402.49 1.643 1.167h6.866l3.33-3.33a.58.58 0 01.412-.17h6.175l1.408-1.408V7.825l-4.5-4.5c-.229.109-.48.175-.75.175-.965 0-1.75-.785-1.75-1.75S27.619 0 28.584 0s1.75.785 1.75 1.75c0 .27-.066.521-.176.75l4.672 4.67c.11.11.17.258.17.413v5.25a.581.581 0 01-.17.412l-1.75 1.75a.582.582 0 01-.413.171h-6.175l-3.33 3.33a.582.582 0 01-.412.17h-7.107A1.748 1.748 0 0114 19.833c-.964 0-1.75-.785-1.75-1.75s.786-1.75 1.75-1.75zM28.584 1.167a.584.584 0 10.001 1.167.584.584 0 00-.001-1.167zM14 18.667a.584.584 0 10-.002-1.169.584.584 0 00.002 1.168zM1.75 14c.27 0 .522.066.75.175l2.167-2.167V8.643A1.748 1.748 0 013.5 7c0-.965.785-1.75 1.75-1.75S7 6.035 7 7c0 .76-.49 1.401-1.166 1.643v3.607a.58.58 0 01-.171.412L3.325 15c.11.228.175.48.175.75 0 .76-.49 1.4-1.166 1.642v.45l4.495 4.495c.11.11.171.258.171.413v.69a1.748 1.748 0 011.167 1.643c0 .76-.49 1.401-1.167 1.643v1.382a1.748 1.748 0 011.167 1.642c0 .965-.785 1.75-1.75 1.75s-1.75-.785-1.75-1.75c0-.76.49-1.401 1.167-1.642v-1.382a1.748 1.748 0 01-1.167-1.643c0-.76.49-1.401 1.167-1.643v-.449l-4.496-4.495a.58.58 0 01-.171-.413v-.69A1.748 1.748 0 010 15.75C0 14.785.785 14 1.75 14zm3.5-6.417a.584.584 0 100-1.168.584.584 0 000 1.168zm1.167 22.75a.584.584 0 10-.001-1.168.584.584 0 00.001 1.168zm0-4.667a.584.584 0 10-.001-1.168.584.584 0 00.001 1.168zM1.75 16.333a.584.584 0 10-.001-1.168.584.584 0 00.001 1.168z" fill="#00B2FF"/></svg>
